X:1
T:Yoğurt Koydum Dolaba
T:Yoğurt Koydum Dolaba
T:Notasyon: Musa Çetiner
T:www.kolaynota.com
Z:Notasyon: Musa Çetiner
Z:www.kolaynota.com
%%score { 1 | 2 }
L:1/8
Q:1/4=80
M:4/4
K:C
V:1 treble-8 nm="Klasik Gitar" snm="Git."
V:2 tab stafflines=6 strings=E2,A2,D3,G3,B3,E4 
V:1
"Am" z eee ee e/d/e/c/ |"C" e>d g/f/e/d/"G" d4 ::"Am" e2 ed"G" dccB |"Dm" d2 dc"Am" cBBA | %4
w: Yo ğurt koy dum do la _ ba _|el _ le _ re _ vay|Bu gün ba şım ka la ba|bu gün ba şım ka la ba|
"F" c>B"G" c/d/B/A/"Am" A4 :| %5
w: el _ le _ re _ vay|
V:2
 x !1!E!1!E!1!E !1!E!1!E !1!E/!2!D/!1!E/!2!C/ | !1!E>!2!D !1!G/!1!F/!1!E/!2!D/ !2!D4 :: %2
 !1!E2 !1!E!2!D !2!D!2!C!2!C!2!B, | !2!D2 !2!D!2!C !2!C!2!B,!2!B,!3!A, | %4
 !2!C>!2!B, !2!C/!2!D/!2!B,/!3!A,/ !3!A,4 :| %5

